packages/swarm-icons/src/icons/large/Bookmark Selected.svg

<svg xmlns="http://www.w3.org/2000/svg" width="28" height="28" viewBox="0 0 28 28">
  <path fill="#212121" d="M14,18.9544613 L7.67480093,24.7379998 C7.03310282,25.3247459 6,24.8695099 6,24 L6,5 C6,3.8954305 6.8954305,3 8,3 L20,3 C21.1045695,3 22,3.8954305 22,5 L22,24 C22,24.8695099 20.9668972,25.3247459 20.3251991,24.7379998 L14,18.9544613 Z M15,12 L17,12 C17.5522847,12 18,11.5522847 18,11 C18,10.4477153 17.5522847,10 17,10 L15,10 L15,8 C15,7.44771525 14.5522847,7 14,7 C13.4477153,7 13,7.44771525 13,8 L13,10 L11,10 C10.4477153,10 10,10.4477153 10,11 C10,11.5522847 10.4477153,12 11,12 L13,12 L13,14 C13,14.5522847 13.4477153,15 14,15 C14.5522847,15 15,14.5522847 15,14 L15,12 Z"/>
</svg>

<svg xmlns="http://www.w3.org/2000/svg" width="28" height="28"><path fill="#212121" d="M14 18.954l-6.325 5.784C7.033 25.325 6 24.87 6 24V5a2 2 0 012-2h12a2 2 0 012 2v19c0 .87-1.033 1.325-1.675.738L14 18.954zM15 12h2a1 1 0 000-2h-2V8a1 1 0 00-2 0v2h-2a1 1 0 000 2h2v2a1 1 0 002 0v-2z"/></svg>
